X: 124
T:Missa Missus est Gabriel Angelus / Sanctus
N: Derived from Jos1002d-Missa_Missus_est_Gabriel_Angelus-Sanctus.krn
C: Josquin des Prez
%%abc-version 2.0
%%abcx-abcm2ps-target-version 5.9.1 (29 Sep 2008)
%%abc-creator hum2abc beta
%%abcx-conversion-date 2019/02/12 16:15:44
%%abc-edited-by Jesse Rodin
%%abc-edited-by Will Watson 07/07/2011
%%abcx-initial-encoding-date 2011/07/07/
%%humdrum-veritas 4232721345
%%humdrum-veritas-data 4187615844
%%linebreak <none>
%%barnumbers 0
L: 1/4
M: 2/1
Q: 1/2=120
%%staves [1 2 3 4]
V: 1 clef=treble
V: 2 clef=treble-8
V: 3 clef=treble-8
V: 4 clef=bass
K: F
[V:1] G,8 | 
[V:2] z8 | 
[V:3] z8 | 
[V:4] z8 | 
[V:1] G,4D4- | 
[V:2] z8 | 
[V:3] z8 | 
[V:4] z8 | 
[V:1] D2CDEDG2- | 
[V:2] G8 | 
[V:3] z8 | 
[V:4] z8 | 
[V:1] G2FEF2B,2 | 
[V:2] G4d4- | 
[V:3] z8 | 
[V:4] z8 | 
[V:1] z2B2G2B2- | 
[V:2] d2cdedg2- | 
[V:3] G8 | 
[V:4] z8 | 
[V:1] B2AGA2B2- | 
[V:2] g2fef4 | 
[V:3] G4d4- | 
[V:4] z8 | 
[V:1] B2A2G4- | 
[V:2] B4z2B2- | 
[V:3] d2cde2d2- | 
[V:4] G,,8 | 
[V:1] G4F4- | 
[V:2] Bcd4cB | 
[V:3] d2cBA4 | 
[V:4] G,,4D,4- | 
[V:1] F4z2F2 | 
[V:2] A3Bc2d2- | 
[V:3] F4G2A2 | 
[V:4] D,2C,D,E,2D,2 | 
[V:1] G2B4AG | 
[V:2] dcBAG4 | 
[V:3] B3cd4 | 
[V:4] G,6F,E, | 
[V:1] A2B3AA2- | 
[V:2] z2G2A4 | 
[V:3] z2d4c2 | 
[V:4] F,2G,2D,2F,2 | 
[V:1] A2G4^F2 | 
[V:2] B2c2d4 | 
[V:3] B2G2A4 | 
[V:4] G,2E,2D,4 | 
[V:1] G8- | 
[V:2] _e2d3cBA | 
[V:3] G8 | 
[V:4] G,,4z2G,2- | 
[V:1] G4z4 | 
[V:2] B3GA2B2- | 
[V:3] z8 | 
[V:4] G,2G,2F,2G,2- | 
[V:1] z2G4G2 | 
[V:2] BAd4^c2 | 
[V:3] G6G2 | 
[V:4] G,F,E,D,E,4 | 
[V:1] F3GA2G2- | 
[V:2] d2f4e2- | 
[V:3] A4F2c2- | 
[V:4] D,4z4 | 
[V:1] GFEDE4 | 
[V:2] edd4^c2 | 
[V:3] c2B2A4- | 
[V:4] z8 | 
[V:1] DEFGA2B2- | 
[V:2] d4z2d2- | 
[V:3] A4z4 | 
[V:4] D,3E,F,2G,2- | 
[V:1] B2AGFGAB | 
[V:2] def4ed | 
[V:3] z2d4cB | 
[V:4] G,2F,E,D,2F,2- | 
[V:1] c3BG3A | 
[V:2] c2_e3dB2- | 
[V:3] A2c3BG2- | 
[V:4] F,E,C,3D,E,F, | 
[V:1] B3AF2A2- | 
[V:2] Bcd3Ad2- | 
[V:3] GABcd3c | 
[V:4] G,2F,E,D,4 | 
[V:1] AGG4^F2 | 
[V:2] d2c2d4 | 
[V:3] B2AGA4 | 
[V:4] _E,4D,4 | 
[V:1] G8 ||  
[V:2] d8 ||  
[V:3] G8 ||  
[V:4] G,,8 ||  
[V:1]  [K:F] [K:clef=treble][M:2/1]z8 | 
[V:2]  [K:F] [K:clef=treble-8][M:2/1]d8 | 
[V:3]  [K:F] [K:clef=treble-8][M:2/1]z8 | 
[V:4]  [K:F] [K:clef=bass][M:2/1]z8 | 
[V:1] z8 | 
[V:2] d4d4 | 
[V:3] z8 | 
[V:4] z8 | 
[V:1] A8 | 
[V:2] f6ed | 
[V:3] z8 | 
[V:4] z8 | 
[V:1] A4A4 | 
[V:2] c2d3ef2- | 
[V:3] z8 | 
[V:4] z8 | 
[V:1] c6BA | 
[V:2] f2edc2d2 | 
[V:3] z8 | 
[V:4] z8 | 
[V:1] G3AB4 | 
[V:2] e4d4 | 
[V:3] z8 | 
[V:4] z8 | 
[V:1] A8- | 
[V:2] z2d4cB | 
[V:3] z8 | 
[V:4] z8 | 
[V:1] A8 | 
[V:2] c2d2A2d2- | 
[V:3] z8 | 
[V:4] z8 | 
[V:1] z2A4GF | 
[V:2] d2cBc2d2 | 
[V:3] z8 | 
[V:4] z8 | 
[V:1] G3AB3G | 
[V:2] _e4d2g2- | 
[V:3] z8 | 
[V:4] z8 | 
[V:1] ABcAB3G | 
[V:2] g2f2g2fe | 
[V:3] z8 | 
[V:4] z8 | 
[V:1] A2B3A/G/A2 | 
[V:2] d8 | 
[V:3] z8 | 
[V:4] z8 | 
[V:1] B3A/G/A2B2- | 
[V:2] z2d3cBA | 
[V:3] z8 | 
[V:4] z8 | 
[V:1] BGA2B3A/G/ | 
[V:2] G2d3Gd2 | 
[V:3] z8 | 
[V:4] z8 | 
[V:1] A2G4^F2 | 
[V:2] c2B2A4 | 
[V:3] z8 | 
[V:4] z8 | 
[V:1] G8 | 
[V:2] G4z2G2- | 
[V:3] z8 | 
[V:4] z8 | 
[V:1] z4z2G2- | 
[V:2] G2A2B2c2- | 
[V:3] z8 | 
[V:4] z8 | 
[V:1] G2A2B2c2- | 
[V:2] c2BAG2FG | 
[V:3] z8 | 
[V:4] z8 | 
[V:1] c2BAG2A2- | 
[V:2] ABcde2f2- | 
[V:3] z8 | 
[V:4] z8 | 
[V:1] AGF2E4 | 
[V:2] fed4^c2 | 
[V:3] z8 | 
[V:4] z8 | 
[V:1] D8 | 
[V:2] d4z2d2 | 
[V:3] z8 | 
[V:4] z8 | 
[V:1] z2A2A2c2- | 
[V:2] d2f4ed | 
[V:3] z8 | 
[V:4] z8 | 
[V:1] c2BAG2A2- | 
[V:2] c8 | 
[V:3] z8 | 
[V:4] z8 | 
[V:1] AGFEDEFG | 
[V:2] d4f4- | 
[V:3] z8 | 
[V:4] z8 | 
[V:1] ABc4B2 | 
[V:2] f2f2e2d2 | 
[V:3] z8 | 
[V:4] z8 | 
[V:1] A2c4B2 | 
[V:2] f4e2d2 | 
[V:3] z8 | 
[V:4] z8 | 
[V:1] A2c3BAG | 
[V:2] f3ec2d2- | 
[V:3] z8 | 
[V:4] z8 | 
[V:1] F2A4GF | 
[V:2] d2c2d3c/B/ | 
[V:3] z8 | 
[V:4] z8 | 
[V:1] E2DEFGA2- | 
[V:2] c2d3c/B/c2 | 
[V:3] z8 | 
[V:4] z8 | 
[V:1] AGG4^F2 | 
[V:2] d3c/B/A4 | 
[V:3] z8 | 
[V:4] z8 | 
[V:1] G8 ||  
[V:2] G8 ||  
[V:3] z8 ||  
[V:4] z8 ||  
[V:1]  [K:F] [K:clef=treble][M:2/1]z8 | 
[V:2]  [K:F] [K:clef=treble-8][M:2/1]d6B2- | 
[V:3]  [K:F] [K:clef=treble-8][M:2/1]B8- | 
[V:4]  [K:F] [K:clef=bass][M:2/1]G,8- | 
[V:1] z8 | 
[V:2] Bcd2G2d2- | 
[V:3] B8 | 
[V:4] G,8 | 
[V:1] z8 | 
[V:2] d2cBA4 | 
[V:3] F8 | 
[V:4] D,8 | 
[V:1] d6B2- | 
[V:2] G2B3cd2 | 
[V:3] G8 | 
[V:4] G,,8- | 
[V:1] Bcd2G2d2- | 
[V:2] GABcd3e | 
[V:3] G8 | 
[V:4] G,,8 | 
[V:1] d2cBA4 | 
[V:2] f2g4^f2 | 
[V:3] d8 | 
[V:4] z8 | 
[V:1] G8 | 
[V:2] g4c4 | 
[V:3] e8 | 
[V:4] z8 | 
[V:1] z8 | 
[V:2] f4z2f2- | 
[V:3] d8 | 
[V:4] D,6B,,2- | 
[V:1] z8 | 
[V:2] fedcB4 | 
[V:3] z4d4- | 
[V:4] B,,C,D,2G,,2D,2- | 
[V:1] z8 | 
[V:2] A2G4^F2 | 
[V:3] d4c4 | 
[V:4] D,2C,B,,A,,4 | 
[V:1] D3C/D/EDG2- | 
[V:2] G8 | 
[V:3] B8 | 
[V:4] G,,8 | 
[V:1] G2^FEF4 | 
[V:2] A8 | 
[V:3] c4d4 | 
[V:4] z4D,3C,/D,/ | 
[V:1] G4z4 | 
[V:2] G3AB2G2 | 
[V:3] z4d4 | 
[V:4] E,D,G,4^F,E, | 
[V:1] z4D4 | 
[V:2] A4G4 | 
[V:3] c4B4 | 
[V:4] ^F,4G,4 | 
[V:1] EDG4^FE | 
[V:2] z2c2B2d2- | 
[V:3] c3BG2B2 | 
[V:4] z8 | 
[V:1] ^F4G4 | 
[V:2] d2d2B2G2 | 
[V:3] A4G4 | 
[V:4] D,4E,2G,2- | 
[V:1] z8 | 
[V:2] B3cA4 | 
[V:3] z2d4c2 | 
[V:4] G,2^F,E,F,4 | 
[V:1] D4E2G2- | 
[V:2] G3AB3c | 
[V:3] B4G4 | 
[V:4] G,6F,E, | 
[V:1] G2^FEF4 | 
[V:2] d8- | 
[V:3] B3cA4 | 
[V:4] D,8 | 
[V:1] G8 ||  
[V:2] d8 ||  
[V:3] G8 ||  
[V:4] G,,8 ||  
[V:1]  [K:F] [K:clef=treble][M:2/1]z8 | 
[V:2]  [K:F] [K:clef=treble-8][M:2/1]d8 | 
[V:3]  [K:F] [K:clef=treble-8][M:2/1]z8 | 
[V:4]  [K:F] [K:clef=bass][M:2/1]z8 | 
[V:1] z8 | 
[V:2] d6cB | 
[V:3] z8 | 
[V:4] z8 | 
[V:1] A8 | 
[V:2] c2d2A2d2- | 
[V:3] z8 | 
[V:4] z8 | 
[V:1] A6GF | 
[V:2] d2cBc2d2 | 
[V:3] z8 | 
[V:4] z8 | 
[V:1] G2A2B4- | 
[V:2] _e2d3cBA | 
[V:3] z8 | 
[V:4] z8 | 
[V:1] B2AGF2G2 | 
[V:2] G2d4B2 | 
[V:3] z8 | 
[V:4] z8 | 
[V:1] A2F2G2B2- | 
[V:2] c2d2_e4 | 
[V:3] z8 | 
[V:4] z8 | 
[V:1] B2AGA4- | 
[V:2] d6cB | 
[V:3] z8 | 
[V:4] z4D,4- | 
[V:1] A2D2D4- | 
[V:2] A2B4AG | 
[V:3] z8 | 
[V:4] D,4D,4- | 
[V:1] D4z4 | 
[V:2] F2A4GF | 
[V:3] z8 | 
[V:4] D,2C,B,,C,2D,2 | 
[V:1] z8 | 
[V:2] G3AB4- | 
[V:3] z8 | 
[V:4] _E,6D,C, | 
[V:1] z8 | 
[V:2] B2AGF2G2 | 
[V:3] z8 | 
[V:4] B,,2C,2D,2B,,2 | 
[V:1] z4A4 | 
[V:2] A4z2d2- | 
[V:3] z8 | 
[V:4] C,2D,3C,B,,A,, | 
[V:1] B4A4- | 
[V:2] def4ed | 
[V:3] z8 | 
[V:4] G,,2D,4C,B,, | 
[V:1] A2GFG3A | 
[V:2] e2d4^c2 | 
[V:3] z8 | 
[V:4] C,2D,2E,4 | 
[V:1] B2A4GF | 
[V:2] d4z2d2 | 
[V:3] z8 | 
[V:4] D,8 | 
[V:1] G3AB4 | 
[V:2] _e4d4- | 
[V:3] z8 | 
[V:4] z8 | 
[V:1] A6GF | 
[V:2] d2cBc3d | 
[V:3] z8 | 
[V:4] z8 | 
[V:1] G2B4AG | 
[V:2] _e2d4c2 | 
[V:3] z8 | 
[V:4] z2D,2_E,4 | 
[V:1] F2D3EFD | 
[V:2] d4z2A2- | 
[V:3] z8 | 
[V:4] D,6C,B,, | 
[V:1] E3DG2F2- | 
[V:2] A2GFG2A2 | 
[V:3] z8 | 
[V:4] C,3D,_E,2D,2- | 
[V:1] FDG4^F2 | 
[V:2] B2c2A4 | 
[V:3] z8 | 
[V:4] D,2C,2D,4 | 
[V:1] G4z4 | 
[V:2] G4z2d2 | 
[V:3] z8 | 
[V:4] z2G,2G,2D,2 | 
[V:1] z8 | 
[V:2] d2A2c3B | 
[V:3] z8 | 
[V:4] F,3E,C,2G,2- | 
[V:1] z8 | 
[V:2] G2d3cAB | 
[V:3] z8 | 
[V:4] G,F,D,E,F,3E, | 
[V:1] z8 | 
[V:2] c3BG2B2 | 
[V:3] z8 | 
[V:4] C,3D,E,C,D,2- | 
[V:1] z8 | 
[V:2] A2G4^F2 | 
[V:3] z8 | 
[V:4] D,C,B,,2A,,4 | 
[V:1] z4z2d2 | 
[V:2] G2g2g2d2 | 
[V:3] z8 | 
[V:4] G,,4G,2G,2 | 
[V:1] d2A2c3B | 
[V:2] f3ec2g2- | 
[V:3] z8 | 
[V:4] D,2F,3E,C,2 | 
[V:1] G2d3cAB | 
[V:2] gfdef3e | 
[V:3] z8 | 
[V:4] G,3F,D,E,F,2- | 
[V:1] c3BG2B2 | 
[V:2] c3decd2- | 
[V:3] z8 | 
[V:4] F,E,C,2G,2D,2 | 
[V:1] A2G4^F2 | 
[V:2] d2cBA4 | 
[V:3] z8 | 
[V:4] F,2G,2D,4 | 
[V:1] G4z2d2 | 
[V:2] G2g2g2d2 | 
[V:3] z8 | 
[V:4] G,,4G,2G,2 | 
[V:1] d2A2c3B | 
[V:2] f3ec2g2- | 
[V:3] z8 | 
[V:4] D,2F,3E,C,2 | 
[V:1] G2d3cAB | 
[V:2] gfdef3e | 
[V:3] z8 | 
[V:4] G,3F,D,E,F,2- | 
[V:1] c3BG2B2 | 
[V:2] c3decd2- | 
[V:3] z8 | 
[V:4] F,E,C,2G,2D,2 | 
[V:1] A2G4^F2 | 
[V:2] d2cBA4 | 
[V:3] z8 | 
[V:4] F,2G,2D,4 | 
[V:1] G8 |]  
[V:2] G8 |]  
[V:3] z8 |]  
[V:4] G,,8 |]  



